X: 58
M:2/4
L:1/16
K:F
((3ucde)|vgfcB ABcA|BcdB .G2(GF)|EFGE CDEC|FGAB =Bcde|
fcag fedc|dBba gfed|cfdB AFGE|F2F2F2:|
|:(uAB)|{d}vc=BcA Fafc|d^cdB Gbge|fcag fedc|BAGF ECDE|


